www/assets/icons/reviews.svg

<svg xmlns="http://www.w3.org/2000/svg" width="24" height="24" viewBox="0 0 24 24" fill='currentColor'><path d="M20 2H4c-1.1 0-2 .9-2 2v18l4-4h14c1.1 0 2-.9 2-2V4c0-1.1-.9-2-2-2m-6.43 9.57L12 15l-1.57-3.43L7 10l3.43-1.57L12 5l1.57 3.43L17 10z"/></svg>

<svg width="24" height="24" viewBox="0 0 24 24" xmlns="http://www.w3.org/2000/svg" fill='currentColor'><path d="M20 2H4C2.9 2 2 2.9 2 4V22L6 18H20C21.1 18 22 17.1 22 16V4C22 2.9 21.1 2 20 2ZM13.57 11.57L12 15L10.43 11.57L7 10L10.43 8.43L12 5L13.57 8.43L17 10L13.57 11.57Z"/></svg>
